source/assets/images/icons/beverage.svg

<?xml version="1.0" encoding="UTF-8" standalone="no"?>
<!DOCTYPE svg PUBLIC "-//W3C//DTD SVG 1.1//EN" "http://www.w3.org/Graphics/SVG/1.1/DTD/svg11.dtd">
<svg width="100%" height="100%" viewBox="0 0 20 20" version="1.1" xmlns="http://www.w3.org/2000/svg" xmlns:xlink="http://www.w3.org/1999/xlink" xml:space="preserve" xmlns:serif="http://www.serif.com/" style="fill-rule:evenodd;clip-rule:evenodd;stroke-linejoin:round;stroke-miterlimit:2;">
    <path d="M9,18L9,11L0,2L0,0L20,0L20,2L11,11L11,18L16,19L16,20L4,20L4,19L9,18ZM11,8C12.097,8 13,7.097 13,6C13,4.903 12.097,4 11,4C9.903,4 9,4.903 9,6C9,7.097 9.903,8 11,8Z" style="fill-rule:nonzero;"/>
</svg>

<svg xmlns="http://www.w3.org/2000/svg" viewBox="0 0 20 20"><path d="M9 18v-7L0 2V0h20v2l-9 9v7l5 1v1H4v-1l5-1zm2-10a2 2 0 1 0 0-4 2 2 0 0 0 0 4z"/></svg>
